src/assets/icon2.svg

<svg width="38" height="38" viewBox="0 0 38 38" fill="none" xmlns="http://www.w3.org/2000/svg">
<path d="M33.9995 0.25H3.99951C3.00495 0.25 2.05112 0.645088 1.34786 1.34835C0.6446 2.05161 0.249512 3.00544 0.249512 4V24C0.249512 24.9946 0.6446 25.9484 1.34786 26.6517C2.05112 27.3549 3.00495 27.75 3.99951 27.75H9.66201C9.64957 27.9581 9.64957 28.1669 9.66201 28.375C9.66201 30.8614 10.6497 33.246 12.4079 35.0041C14.166 36.7623 16.5506 37.75 19.037 37.75C21.5234 37.75 23.908 36.7623 25.6661 35.0041C27.4243 33.246 28.412 30.8614 28.412 28.375C28.4245 28.1669 28.4245 27.9581 28.412 27.75H33.9995C34.9941 27.75 35.9479 27.3549 36.6512 26.6517C37.3544 25.9484 37.7495 24.9946 37.7495 24V4C37.7495 3.00544 37.3544 2.05161 36.6512 1.34835C35.9479 0.645088 34.9941 0.25 33.9995 0.25ZM18.9995 35.25C17.6398 35.25 16.3106 34.8468 15.18 34.0914C14.0494 33.3359 13.1682 32.2622 12.6478 31.0059C12.1275 29.7497 11.9913 28.3674 12.2566 27.0338C12.5219 25.7001 13.1767 24.4751 14.1382 23.5136C15.0996 22.5522 16.3246 21.8974 17.6583 21.6321C18.9919 21.3668 20.3742 21.503 21.6305 22.0233C22.8867 22.5437 23.9604 23.4249 24.7159 24.5555C25.4713 25.686 25.8745 27.0153 25.8745 28.375C25.8712 30.1973 25.1458 31.9441 23.8572 33.2327C22.5686 34.5213 20.8219 35.2467 18.9995 35.25ZM35.2495 24C35.2495 24.3315 35.1178 24.6495 34.8834 24.8839C34.649 25.1183 34.331 25.25 33.9995 25.25H27.8245C27.1841 23.4203 25.9908 21.8349 24.4097 20.7132C22.8287 19.5915 20.938 18.989 18.9995 18.989C17.061 18.989 15.1704 19.5915 13.5893 20.7132C12.0083 21.8349 10.815 23.4203 10.1745 25.25H3.99951C3.66799 25.25 3.35005 25.1183 3.11563 24.8839C2.88121 24.6495 2.74951 24.3315 2.74951 24V4C2.74951 3.66848 2.88121 3.35054 3.11563 3.11612C3.35005 2.8817 3.66799 2.75 3.99951 2.75H33.9995C34.331 2.75 34.649 2.8817 34.8834 3.11612C35.1178 3.35054 35.2495 3.66848 35.2495 4V24Z" fill="white"/>
<path d="M18.1493 28.275L16.4993 26.6375L14.7368 28.4L17.2368 30.9C17.4696 31.1309 17.7839 31.2611 18.1118 31.2625C18.2763 31.2635 18.4394 31.2319 18.5917 31.1697C18.744 31.1075 18.8825 31.0159 18.9993 30.9L23.2243 26.6875L21.4993 24.9375L18.1493 28.275ZM31.4993 5.25H25.2493V7.75H28.4868L22.4118 13.8125L18.7743 10.175C18.5418 9.95339 18.233 9.82976 17.9118 9.82976C17.5906 9.82976 17.2818 9.95339 17.0493 10.175L4.73682 21.425L6.42432 23.2625L17.8618 12.75L21.4993 16.5C21.7335 16.7328 22.0503 16.8635 22.3806 16.8635C22.7108 16.8635 23.0276 16.7328 23.2618 16.5L30.2493 9.5125V12.75H32.7493V6.5C32.7493 6.16848 32.6176 5.85054 32.3832 5.61612C32.1488 5.3817 31.8308 5.25 31.4993 5.25ZM27.7493 17.75H32.7493V20.25H27.7493V17.75ZM5.24932 5.25H13.9993V7.75H5.24932V5.25ZM5.24932 10.25H11.4993V12.75H5.24932V10.25Z" fill="white"/>
</svg>

<svg width="38" height="38" fill="none" xmlns="http://www.w3.org/2000/svg"><path d="M34 .25H4A3.75 3.75 0 0 0 .25 4v20A3.75 3.75 0 0 0 4 27.75h5.662a5.238 5.238 0 0 0 0 .625 9.375 9.375 0 1 0 18.75 0 5.213 5.213 0 0 0 0-.625h5.587A3.75 3.75 0 0 0 37.75 24V4A3.75 3.75 0 0 0 34 .25zm-15 35a6.875 6.875 0 1 1 6.875-6.875A6.888 6.888 0 0 1 19 35.25zM35.25 24A1.25 1.25 0 0 1 34 25.25h-6.175a9.35 9.35 0 0 0-17.65 0H4A1.25 1.25 0 0 1 2.75 24V4A1.25 1.25 0 0 1 4 2.75h30A1.25 1.25 0 0 1 35.25 4v20z" fill="#fff"/><path d="m18.15 28.275-1.65-1.637-1.763 1.762 2.5 2.5a1.25 1.25 0 0 0 1.762 0l4.225-4.212-1.725-1.75-3.35 3.337zM31.5 5.25h-6.25v2.5h3.237l-6.075 6.063-3.638-3.638a1.25 1.25 0 0 0-1.725 0L4.737 21.425l1.687 1.837L17.862 12.75l3.637 3.75a1.25 1.25 0 0 0 1.763 0l6.987-6.988v3.238h2.5V6.5a1.25 1.25 0 0 0-1.25-1.25zm-3.75 12.5h5v2.5h-5v-2.5zM5.25 5.25H14v2.5H5.25v-2.5zm0 5h6.25v2.5H5.25v-2.5z" fill="#fff"/></svg>
